X:1
T:Viva La Quince Brigada
M:3/4
L:1/8
K:C
 EA^G AB ^G| AAE E/2E/2 E E/2E/2| EEE z EA| ^GAB ^GA A| E E/2E/2 E E/2E/2 EE|\
 E z|: cc cc| cc B/2A/2 =G B2| B3/2- B/2 AF A2| A3/2- A/2 ^G B- B4|\
 ccc cc c| B/2A/2 =G B2 B3/2- B/2| AF A2 A3/2- A/2| ^Ge/2-e/2 e z z2|\
